X:61
T:Dan Leno's
M:2/4
L:1/8
K:G
d2|:g2f2e2d2|B2 BB B2 d2|g2f2e2d2|c2ccc2B2|
  |A2B2c2d2|f4e4|1d2d2e2d2|B4d4:|2d2d2c2A2|G8|
  |:d2B2d2B2|d2B2 BBB2|d2B2d2B2|d2c2ccc2|
  |A2B2c2d2|f2fff2e2|1dde2d2B2:|2ddc2A2G2|
